src/modules/Map/Map/components/ShareControl/twitter.svg

<svg xmlns="http://www.w3.org/2000/svg" width="20" height="17" viewBox="0 0 20 17">
  <path fill="#A7B6C2" d="M6.28110236,16.4 C13.7062992,16.4 17.7692913,10.2425197 17.7692913,4.91181102 C17.7692913,4.73858268 17.7692913,4.56535433 17.7614173,4.39212598 C18.5488189,3.82519685 19.2338583,3.10866142 19.7771654,2.2976378 C19.0527559,2.62047244 18.2732283,2.83307087 17.4543307,2.93543307 C18.2889764,2.43937008 18.9267717,1.64409449 19.2338583,0.699212598 C18.4543307,1.16377953 17.588189,1.49448819 16.6669291,1.67559055 C15.9267717,0.888188976 14.8795276,0.4 13.7220472,0.4 C11.4937008,0.4 9.68267717,2.21102362 9.68267717,4.43937008 C9.68267717,4.75433071 9.72204724,5.06141732 9.78503937,5.36062992 C6.43070866,5.19527559 3.45433071,3.58110236 1.46220472,1.14015748 C1.11574803,1.73858268 0.918897638,2.43149606 0.918897638,3.17165354 C0.918897638,4.57322835 1.63543307,5.80944882 2.71417323,6.53385827 C2.05275591,6.51023622 1.43070866,6.32913386 0.887401575,6.02992126 L0.887401575,6.08503937 C0.887401575,8.03779528 2.28110236,9.67559055 4.12362205,10.0456693 C3.78503937,10.1401575 3.43070866,10.1874016 3.06062992,10.1874016 C2.8007874,10.1874016 2.5488189,10.1637795 2.30472441,10.1165354 C2.81653543,11.7228346 4.31259843,12.888189 6.07637795,12.919685 C4.69055118,14.0062992 2.9503937,14.6519685 1.06062992,14.6519685 C0.737795276,14.6519685 0.41496063,14.6362205 0.1,14.5968504 C1.87952756,15.7307087 4.00551181,16.4 6.28110236,16.4"/>
</svg>

<svg xmlns="http://www.w3.org/2000/svg" width="20" height="17"><path fill="#A7B6C2" d="M6.281 16.4c7.425 0 11.488-6.157 11.488-11.488 0-.173 0-.347-.008-.52a8.226 8.226 0 002.016-2.094 8.183 8.183 0 01-2.323.637A4.062 4.062 0 0019.234.7a8.031 8.031 0 01-2.567.977A4.03 4.03 0 0013.722.4a4.043 4.043 0 00-4.04 4.04c0 .314.04.621.103.92a11.466 11.466 0 01-8.323-4.22 4.049 4.049 0 001.252 5.394A4.084 4.084 0 01.887 6.03v.055a4.046 4.046 0 003.237 3.96 3.936 3.936 0 01-1.063.142 3.97 3.97 0 01-.756-.07 4.038 4.038 0 003.771 2.803 8.098 8.098 0 01-5.015 1.732 7.77 7.77 0 01-.961-.055A11.485 11.485 0 006.281 16.4"/></svg>
